;START_OF_HEADER
;HEADER_VERSION:0.1
;FLAVOR:Griffin
;GENERATOR.NAME:Cura_SteamEngine
;GENERATOR.VERSION:5.4.0
;GENERATOR.BUILD_DATE:2023-07-05
;TARGET_MACHINE.NAME:Ultimaker 3 Extended
;EXTRUDER_TRAIN.0.INITIAL_TEMPERATURE:210
;EXTRUDER_TRAIN.0.MATERIAL.VOLUME_USED:8070
;EXTRUDER_TRAIN.0.MATERIAL.GUID:506c9f0d-e3aa-4bd4-b2d2-23e2425b1aa9
;EXTRUDER_TRAIN.0.NOZZLE.DIAMETER:0.8
;EXTRUDER_TRAIN.0.NOZZLE.NAME:AA 0.8
;BUILD_PLATE.INITIAL_TEMPERATURE:60
;PRINT.TIME:1105
;PRINT.GROUPS:1
;PRINT.SIZE.MIN.X:9
;PRINT.SIZE.MIN.Y:6
;PRINT.SIZE.MIN.Z:0.4
;PRINT.SIZE.MAX.X:150.1
;PRINT.SIZE.MAX.Y:132.15
;PRINT.SIZE.MAX.Z:14
;SLICE_UUID:45af3826-2dbb-4693-8e14-5c5d9981e143
;END_OF_HEADER
;Generated with Cura_SteamEngine 5.4.0
T0
M82 ;absolute extrusion mode

G92 E0
M109 S210
G0 F15000 X9 Y6 Z2
G280
G1 F1500 E-5
;LAYER_COUNT:35
;LAYER:0
M106 S255
M204 S1000
M205 X25 Y25
G1 F600 Z2.4
G0 F15000 X87.175 Y86.222 Z2.4
;TYPE:SKIRT
G1 F600 Z0.4
G1 F900 E0
G1 F1800 X88.071 Y85.475 E0.05852
G1 X88.816 Y84.964 E0.10383
G1 X89.772 Y84.393 E0.15969
G1 X90.822 Y83.891 E0.21807
G1 X91.92 Y83.478 E0.27691
G1 X92.967 Y83.198 E0.33128
G1 X93.819 Y83.028 E0.37486
G1 X94.975 Y82.891 E0.43325
G1 X96.92 Y82.85 E0.53084
G1 X136.452 Y82.85 E2.51382
G1 X137.428 Y82.864 E2.56278
G1 X138.245 Y82.908 E2.60382
G1 X139.271 Y83.042 E2.65573
G1 X140.354 Y83.272 E2.71126
G1 X141.595 Y83.656 E2.77643
G1 X142.561 Y84.057 E2.82889
G1 X143.485 Y84.541 E2.88121
G1 X144.337 Y85.059 E2.93123
G1 X145.098 Y85.611 E2.97839
G1 X145.94 Y86.328 E3.03386
G1 X146.733 Y87.129 E3.0904
G1 X147.377 Y87.906 E3.14102
G1 X147.981 Y88.758 E3.19341
G1 X148.457 Y89.55 E3.23976
G1 X148.81 Y90.235 E3.27842
G1 X149.107 Y90.898 E3.31486
G1 X149.431 Y91.758 E3.36096
G1 X149.776 Y92.974 E3.42436
G1 X149.947 Y93.939 E3.47352
G1 X150.059 Y94.904 E3.52225
G1 X150.1 Y96.904 E3.6226
G1 X150.1 Y118.502 E4.70598
G1 X150.086 Y119.478 E4.75495
G1 X150.024 Y120.51 E4.80681
G1 X149.861 Y121.564 E4.8603
G1 X149.611 Y122.661 E4.91674
G1 X149.276 Y123.671 E4.97012
G1 X148.965 Y124.442 E5.01182
G1 X148.488 Y125.405 E5.06573
G1 X147.923 Y126.337 E5.1204
G1 X147.216 Y127.31 E5.18073
G1 X146.503 Y128.109 E5.23445
G1 X145.893 Y128.716 E5.27761
G1 X144.833 Y129.596 E5.34672
G1 X144.044 Y130.127 E5.39443
G1 X143.263 Y130.59 E5.43997
G1 X142.314 Y131.051 E5.49289
G1 X141.087 Y131.52 E5.55878
G1 X140.033 Y131.802 E5.61351
G1 X139.181 Y131.972 E5.65709
G1 X138.025 Y132.109 E5.71548
G1 X136.08 Y132.15 E5.81307
G1 X96.548 Y132.15 E7.79605
G1 X95.573 Y132.136 E7.84497
G1 X94.681 Y132.085 E7.88978
G1 X93.557 Y131.932 E7.94669
G1 X92.573 Y131.705 E7.99734
G1 X92.054 Y131.554 E8.02445
G1 X91.357 Y131.317 E8.06138
G1 X90.578 Y131.001 E8.10355
G1 X89.661 Y130.547 E8.15488
G1 X88.717 Y129.977 E8.21019
G1 X87.737 Y129.264 E8.27098
G1 X86.937 Y128.549 E8.32481
G1 X86.311 Y127.918 E8.36939
G1 X85.522 Y126.966 E8.43141
G1 X84.998 Y126.215 E8.47735
G1 X84.465 Y125.317 E8.52973
G1 X84.19 Y124.765 E8.56067
G1 X83.894 Y124.104 E8.59699
G1 X83.588 Y123.3 E8.64015
G1 X83.355 Y122.511 E8.68141
G1 X83.181 Y121.777 E8.71925
G1 X83.069 Y121.17 E8.75021
G1 X82.942 Y120.095 E8.80451
G1 X82.9 Y118.101 E8.90456
G1 X82.9 Y96.467 E9.98975
G1 X82.914 Y95.522 E10.03716
G1 X82.961 Y94.678 E10.07956
G1 X83.094 Y93.659 E10.13111
G1 X83.3 Y92.682 E10.18119
G1 X83.481 Y92.054 E10.21398
G1 X83.735 Y91.298 E10.25398
G1 X83.992 Y90.665 E10.28825
G1 X84.252 Y90.105 E10.31922
G1 X84.625 Y89.405 E10.35901
G1 X85.1 Y88.627 E10.40473
G1 X85.538 Y88.02 E10.44228
G1 X86.007 Y87.435 E10.47989
G1 X86.484 Y86.904 E10.5157
G1 X87.175 Y86.222 E10.5644
G0 F15000 X87.689 Y86.835
G1 F1800 X88.525 Y86.134 E10.61912
G1 X89.228 Y85.65 E10.66194
G1 X90.119 Y85.114 E10.71409
G1 X91.104 Y84.64 E10.76893
G1 X92.202 Y84.227 E10.82777
G1 X93.124 Y83.983 E10.87561
G1 X93.976 Y83.813 E10.91919
G1 X94.992 Y83.691 E10.97052
G1 X96.937 Y83.65 E11.06811
G1 X136.441 Y83.65 E13.04969
G1 X137.385 Y83.663 E13.09704
G1 X138.202 Y83.707 E13.13809
G1 X139.107 Y83.825 E13.18387
G1 X140.12 Y84.037 E13.23578
G1 X141.288 Y84.395 E13.29706
G1 X142.254 Y84.796 E13.34952
G1 X143.071 Y85.225 E13.39581
G1 X143.867 Y85.707 E13.44249
G1 X144.628 Y86.259 E13.48965
G1 X145.373 Y86.893 E13.53872
G1 X146.117 Y87.64 E13.5916
G1 X146.761 Y88.417 E13.64223
G1 X147.296 Y89.171 E13.6886
G1 X147.746 Y89.917 E13.7323
G1 X148.08 Y90.563 E13.76878
G1 X148.359 Y91.183 E13.80289
G1 X148.662 Y91.979 E13.84561
G1 X148.988 Y93.114 E13.90485
G1 X149.159 Y94.079 E13.95401
G1 X149.259 Y94.92 E13.99649
G1 X149.3 Y96.92 E14.09683
G1 X149.3 Y118.491 E15.17887
G1 X149.287 Y119.43 E15.22597
G1 X149.225 Y120.462 E15.27783
G1 X149.08 Y121.389 E15.3249
G1 X148.851 Y122.41 E15.37738
G1 X148.533 Y123.374 E15.4283
G1 X148.247 Y124.089 E15.46693
G1 X147.803 Y124.992 E15.51741
G1 X147.276 Y125.867 E15.56864
G1 X146.569 Y126.84 E15.62898
G1 X145.939 Y127.542 E15.67629
G1 X145.329 Y128.149 E15.71946
G1 X144.386 Y128.932 E15.78094
G1 X143.597 Y129.463 E15.82864
G1 X142.913 Y129.87 E15.86857
G1 X141.964 Y130.331 E15.92149
G1 X140.803 Y130.772 E15.98379
G1 X139.876 Y131.017 E16.03189
G1 X139.024 Y131.187 E16.07547
G1 X138.008 Y131.309 E16.1268
G1 X136.063 Y131.35 E16.22438
G1 X96.559 Y131.35 E18.20596
G1 X95.616 Y131.337 E18.25327
G1 X94.789 Y131.292 E18.29481
G1 X93.665 Y131.139 E18.35171
G1 X92.796 Y130.937 E18.39647
G1 X92.31 Y130.796 E18.42185
G1 X91.656 Y130.575 E18.45648
G1 X90.931 Y130.283 E18.49568
G1 X90.073 Y129.861 E18.54365
G1 X89.188 Y129.33 E18.59542
G1 X88.208 Y128.617 E18.65621
G1 X87.505 Y127.986 E18.7036
G1 X86.879 Y127.355 E18.74818
G1 X86.178 Y126.508 E18.80333
G1 X85.654 Y125.757 E18.84927
G1 X85.181 Y124.96 E18.89576
G1 X84.92 Y124.437 E18.92507
G1 X84.641 Y123.817 E18.95918
G1 X84.355 Y123.073 E18.99916
G1 X84.122 Y122.284 E19.04043
G1 X83.967 Y121.63 E19.07414
G1 X83.863 Y121.073 E19.10257
G1 X83.742 Y120.078 E19.15284
G1 X83.7 Y118.084 E19.25289
G1 X83.7 Y96.478 E20.33668
G1 X83.713 Y95.565 E20.38248
G1 X83.755 Y94.779 E20.42196
G1 X83.877 Y93.824 E20.47026
G1 X84.083 Y92.847 E20.52034
G1 X84.249 Y92.278 E20.55007
G1 X84.477 Y91.598 E20.58605
G1 X84.718 Y91.002 E20.6183
G1 X84.978 Y90.442 E20.64927
G1 X85.309 Y89.82 E20.68461
G1 X85.749 Y89.095 E20.72715
G1 X86.187 Y88.488 E20.7647
G1 X86.602 Y87.97 E20.79799
G1 X87.079 Y87.439 E20.8338
G1 X87.689 Y86.835 E20.87686
M204 S429
G1 F1500 E15.87686
G1 F600 Z2.4
;MESH:Freya_Enclosure_V0 v2.stl
G0 F15000 X101.478 Y116.745 Z2.4
;TYPE:WALL-OUTER
G1 F600 Z0.4
G1 F900 E20.87686
G1 F1800 X100.403 Y116.427 E20.93871
G1 X99.533 Y115.87 E20.99571
G1 X98.862 Y115.088 E21.05257
G1 X98.46 Y114.206 E21.10605
G1 X98.309 Y113.543 E21.14357
G1 X98.305 Y101.44 E21.81139
G1 X98.448 Y100.77 E21.84919
G1 X98.86 Y99.86 E21.90431
G1 X99.709 Y98.87 E21.97627
G1 X100.845 Y98.351 E22.04518
G1 X101.541 Y98.198 E22.0845
G1 X131.51 Y98.195 E23.73812
G1 X132.52 Y98.411 E23.79511
G1 X133.546 Y99.073 E23.86249
G1 X134.218 Y99.85 E23.91917
G1 X134.631 Y100.768 E23.97471
G1 X134.769 Y101.391 E24.00992
G1 X134.774 Y113.509 E24.67856
G1 X134.564 Y114.485 E24.73365
G1 X133.909 Y115.501 E24.80035
G1 X133.122 Y116.188 E24.85799
G1 X132.2 Y116.602 E24.91376
G1 X131.576 Y116.74 E24.94902
G1 X101.478 Y116.745 E26.60976
G0 F15000 X101.095 Y116.632
G1 F1500 E21.60976
G0 F15000 X100.954 Y117.113
G0 X131.672 Y117.886
G0 X131.672 Y126.39
G0 X137.079 Y127.55
G1 F900 E26.60976
G1 F1800 X137.809 Y127.52 E26.65007
G1 X138.468 Y127.438 E26.68672
G1 X139.154 Y127.293 E26.7254
G1 X139.817 Y127.096 E26.76357
G1 X140.464 Y126.845 E26.80186
G1 X141.094 Y126.537 E26.84055
G1 X141.7 Y126.176 E26.87947
G1 X142.247 Y125.786 E26.91654
G1 X142.789 Y125.329 E26.95566
G1 X143.267 Y124.852 E26.99292
G1 X143.731 Y124.303 E27.03258
G1 X144.127 Y123.748 E27.0702
G1 X144.483 Y123.154 E27.10841
G1 X144.791 Y122.524 E27.14711
G1 X145.038 Y121.89 E27.18465
G1 X145.238 Y121.225 E27.22297
G1 X145.386 Y120.524 E27.2625
G1 X145.467 Y119.867 E27.29903
G1 X145.5 Y119.138 E27.33929
G1 X145.5 Y95.855 E28.62399
G1 X145.469 Y95.141 E28.66343
G1 X145.387 Y94.477 E28.70034
G1 X145.242 Y93.792 E28.73898
G1 X145.046 Y93.131 E28.77702
G1 X144.795 Y92.486 E28.81521
G1 X144.485 Y91.853 E28.8541
G1 X144.121 Y91.24 E28.89344
G1 X143.737 Y90.704 E28.92982
G1 X143.28 Y90.161 E28.96898
G1 X142.79 Y89.671 E29.00722
G1 X142.265 Y89.225 E29.04523
G1 X141.653 Y88.789 E29.08669
G1 X141.105 Y88.468 E29.12173
G1 X140.476 Y88.16 E29.16038
G1 X139.841 Y87.912 E29.19799
G1 X139.177 Y87.712 E29.23625
G1 X138.474 Y87.564 E29.2759
G1 X137.818 Y87.482 E29.31237
G1 X137.088 Y87.451 E29.35269
G1 X95.921 Y87.45 E31.62419
G1 X95.191 Y87.481 E31.6645
G1 X94.532 Y87.562 E31.70114
G1 X93.846 Y87.707 E31.73983
G1 X93.181 Y87.904 E31.7781
G1 X92.536 Y88.155 E31.81629
G1 X91.909 Y88.462 E31.85481
G1 X91.29 Y88.829 E31.89451
G1 X90.754 Y89.213 E31.93089
G1 X90.211 Y89.67 E31.97006
G1 X89.733 Y90.148 E32.00736
G1 X89.269 Y90.697 E32.04702
G1 X88.873 Y91.252 E32.08464
G1 X88.519 Y91.844 E32.1227
G1 X88.205 Y92.483 E32.16198
G1 X87.965 Y93.098 E32.19841
G1 X87.762 Y93.773 E32.2373
G1 X87.614 Y94.476 E32.27694
G1 X87.532 Y95.132 E32.31342
G1 X87.501 Y95.862 E32.35374
G1 X87.501 Y119.145 E33.63844
G1 X87.53 Y119.858 E33.67781
G1 X87.612 Y120.517 E33.71445
G1 X87.754 Y121.193 E33.75257
G1 X87.954 Y121.869 E33.79147
G1 X88.205 Y122.514 E33.82966
G1 X88.513 Y123.144 E33.86835
G1 X88.88 Y123.76 E33.90791
G1 X89.263 Y124.296 E33.94426
G1 X89.721 Y124.839 E33.98346
G1 X90.198 Y125.317 E34.02072
G1 X90.747 Y125.781 E34.06038
G1 X91.302 Y126.177 E34.098
G1 X91.896 Y126.533 E34.13621
G1 X92.527 Y126.842 E34.17498
G1 X93.151 Y127.086 E34.21195
G1 X93.823 Y127.288 E34.25067
G1 X94.526 Y127.436 E34.29031
G1 X95.182 Y127.518 E34.32679
G1 X95.912 Y127.55 E34.36711
G1 X137.079 Y127.55 E36.6386
M204 S1000
G0 F15000 X137.479 Y127.534
G0 X137.063 Y126.75
;TYPE:WALL-INNER
G1 F1800 X137.743 Y126.722 E36.67104
G1 X138.336 Y126.648 E36.69951
G1 X138.957 Y126.517 E36.72976
G1 X139.557 Y126.338 E36.75959
G1 X140.144 Y126.111 E36.78959
G1 X140.713 Y125.833 E36.81976
G1 X141.262 Y125.506 E36.85021
G1 X141.756 Y125.153 E36.87915
G1 X142.247 Y124.739 E36.90975
G1 X142.678 Y124.31 E36.93873
G1 X143.099 Y123.811 E36.96984
G1 X143.457 Y123.31 E36.99919
G1 X143.779 Y122.772 E37.02907
G1 X144.058 Y122.202 E37.05931
G1 X144.281 Y121.629 E37.08861
G1 X144.462 Y121.027 E37.11856
G1 X144.596 Y120.392 E37.14949
G1 X144.669 Y119.8 E37.17791
G1 X144.7 Y119.12 E37.21035
G1 X144.7 Y95.872 E38.3182
G1 X144.671 Y95.207 E38.34992
G1 X144.597 Y94.609 E38.37863
G1 X144.466 Y93.989 E38.40883
G1 X144.288 Y93.391 E38.43856
G1 X144.061 Y92.807 E38.46842
G1 X143.781 Y92.233 E38.49885
G1 X143.451 Y91.678 E38.52962
G1 X143.105 Y91.196 E38.5579
G1 X142.69 Y90.703 E38.58861
G1 X142.247 Y90.26 E38.61846
G1 X141.773 Y89.857 E38.64811
G1 X141.218 Y89.461 E38.6806
G1 X140.727 Y89.174 E38.7077
G1 X140.154 Y88.893 E38.73811
G1 X139.58 Y88.669 E38.76748
G1 X138.979 Y88.488 E38.79739
G1 X138.342 Y88.354 E38.8284
G1 X137.751 Y88.28 E38.85679
G1 X137.07 Y88.251 E38.88927
G1 X95.937 Y88.25 E40.8494
G1 X95.257 Y88.279 E40.88183
G1 X94.664 Y88.352 E40.9103
G1 X94.042 Y88.483 E40.94059
G1 X93.441 Y88.662 E40.97048
G1 X92.857 Y88.889 E41.00033
G1 X92.289 Y89.166 E41.03045
G1 X91.728 Y89.499 E41.06154
G1 X91.246 Y89.845 E41.08981
G1 X90.753 Y90.26 E41.12052
G1 X90.322 Y90.69 E41.14953
G1 X89.901 Y91.189 E41.18064
G1 X89.543 Y91.69 E41.20999
G1 X89.223 Y92.226 E41.23974
G1 X88.938 Y92.805 E41.27049
G1 X88.722 Y93.359 E41.29882
G1 X88.538 Y93.971 E41.32928
G1 X88.404 Y94.608 E41.3603
G1 X88.33 Y95.199 E41.38868
G1 X88.301 Y95.88 E41.42116
G1 X88.301 Y119.128 E42.52901
G1 X88.328 Y119.792 E42.56068
G1 X88.402 Y120.386 E42.5892
G1 X88.53 Y120.997 E42.61895
G1 X88.712 Y121.609 E42.64937
G1 X88.939 Y122.193 E42.67923
G1 X89.217 Y122.763 E42.70945
G1 X89.55 Y123.322 E42.74046
G1 X89.895 Y123.804 E42.76871
G1 X90.311 Y124.297 E42.79945
G1 X90.74 Y124.728 E42.82842
G1 X91.239 Y125.149 E42.85954
G1 X91.74 Y125.507 E42.88888
G1 X92.278 Y125.829 E42.91876
G1 X92.849 Y126.109 E42.94906
G1 X93.412 Y126.329 E42.97787
G1 X94.021 Y126.512 E43.00817
G1 X94.658 Y126.646 E43.03919
G1 X95.249 Y126.72 E43.06757
G1 X95.93 Y126.75 E43.10006
G1 X137.063 Y126.75 E45.06018
G1 F1500 E40.06018
G0 F15000 X101.373 Y126.39
G0 X101.32 Y117.891
G0 X101.373 Y117.55
G1 F900 E45.06018
G1 F1800 X100.065 Y117.165 E45.12516
G1 X99.01 Y116.487 E45.18492
G1 X98.178 Y115.524 E45.24557
G1 X97.702 Y114.462 E45.30102
G1 X97.504 Y113.608 E45.3428
G1 X97.5 Y101.383 E45.92536
G1 X97.681 Y100.52 E45.96738
G1 X98.177 Y99.421 E46.02484
G1 X99.209 Y98.225 E46.10012
G1 X100.559 Y97.599 E46.17103
G1 X101.479 Y97.393 E46.21596
G1 X131.595 Y97.393 E47.65109
G1 X132.824 Y97.655 E47.71097
G1 X134.072 Y98.457 E47.78166
G1 X134.904 Y99.423 E47.84242
G1 X135.391 Y100.516 E47.89944
G1 X135.574 Y101.328 E47.9391
G1 X135.579 Y113.567 E48.52233
G1 X135.319 Y114.79 E48.58191
G1 X134.502 Y116.053 E48.6536
G1 X133.551 Y116.873 E48.71343
G1 X132.451 Y117.362 E48.7708
G1 X131.639 Y117.545 E48.81046
G1 X101.373 Y117.55 E50.25274
G0 F15000 X101.247 Y118.305
;TYPE:SKIN
G1 F1800 X99.749 Y117.863 E50.31973
G1 X98.49 Y117.047 E50.38407
G1 X97.533 Y115.943 E50.44673
G1 X96.969 Y114.707 E50.505
G1 X96.749 Y113.709 E50.54883
G1 X96.74 Y101.302 E51.08094
G1 X96.955 Y100.274 E51.12599
G1 X97.526 Y99.02 E51.18508
G1 X98.748 Y97.593 E51.26566
G1 X100.345 Y96.86 E51.34102
G1 X101.373 Y96.638 E51.38612
G1 X131.678 Y96.633 E52.68585
G1 X133.106 Y96.937 E52.74846
G1 X134.566 Y97.877 E52.82294
G1 X135.551 Y99.013 E52.88742
G1 X136.122 Y100.269 E52.94659
G1 X136.334 Y101.252 E52.98972
G1 X136.334 Y113.674 E53.52248
G1 X136.04 Y115.061 E53.58329
G1 X135.095 Y116.546 E53.65878
G1 X133.951 Y117.525 E53.72335
G1 X132.696 Y118.095 E53.78247
G1 X131.742 Y118.3 E53.82432
G1 X101.247 Y118.305 E55.13219
G1 F1500 E50.13219
G0 F15000 X101.332 Y117.812
G0 X131.672 Y117.886
G0 X131.672 Y126.39
G0 X137.043 Y125.99
G1 F900 E55.13219
G1 F1800 X137.687 Y125.964 E55.15983
G1 X138.203 Y125.899 E55.18214
G1 X138.774 Y125.779 E55.20716
G1 X139.303 Y125.621 E55.23084
G1 X139.846 Y125.41 E55.25582
G1 X140.343 Y125.166 E55.27957
G1 X140.801 Y124.894 E55.30242
G1 X141.286 Y124.555 E55.32779
G1 X141.74 Y124.172 E55.35327
G1 X142.111 Y123.801 E55.37577
G1 X142.503 Y123.338 E55.40179
G1 X142.849 Y122.854 E55.42731
G1 X143.112 Y122.404 E55.44966
G1 X143.357 Y121.903 E55.47358
G1 X143.563 Y121.374 E55.49793
G1 X143.723 Y120.843 E55.52171
G1 X143.846 Y120.258 E55.54735
G1 X143.91 Y119.739 E55.56978
G1 X143.94 Y119.099 E55.59725
G1 X143.94 Y95.885 E56.59286
G1 X143.912 Y95.264 E56.61952
G1 X143.848 Y94.743 E56.64203
G1 X143.726 Y94.169 E56.6672
G1 X143.571 Y93.644 E56.69068
G1 X143.361 Y93.105 E56.71549
G1 X143.114 Y92.602 E56.73952
G1 X142.809 Y92.087 E56.76519
G1 X142.509 Y91.668 E56.78729
G1 X142.124 Y91.21 E56.81295
G1 X141.736 Y90.824 E56.83642
G1 X141.298 Y90.451 E56.8611
G1 X140.811 Y90.104 E56.88674
G1 X140.36 Y89.84 E56.90916
G1 X139.846 Y89.588 E56.93371
G1 X139.34 Y89.39 E56.95701
G1 X138.795 Y89.227 E56.98141
G1 X138.21 Y89.103 E57.00706
G1 X137.694 Y89.039 E57.02936
G1 X137.049 Y89.012 E57.05704
G1 X95.957 Y89.011 E58.8194
G1 X95.312 Y89.038 E58.84709
G1 X94.795 Y89.101 E58.86942
G1 X94.226 Y89.222 E58.89437
G1 X93.694 Y89.379 E58.91816
G1 X93.155 Y89.589 E58.94297
G1 X92.657 Y89.834 E58.96677
G1 X92.136 Y90.142 E58.99273
G1 X91.718 Y90.442 E59.0148
G1 X91.26 Y90.826 E59.04043
G1 X90.889 Y91.198 E59.06296
G1 X90.497 Y91.661 E59.08898
G1 X90.184 Y92.1 E59.1121
G1 X89.889 Y92.597 E59.13689
G1 X89.638 Y93.103 E59.16112
G1 X89.44 Y93.613 E59.18458
G1 X89.276 Y94.159 E59.20903
G1 X89.153 Y94.741 E59.23454
G1 X89.089 Y95.256 E59.2568
G1 X89.062 Y95.9 E59.28444
G1 X89.062 Y119.116 E60.28013
G1 X89.087 Y119.734 E60.30666
G1 X89.151 Y120.254 E60.32913
G1 X89.266 Y120.804 E60.35323
G1 X89.43 Y121.355 E60.37788
G1 X89.64 Y121.894 E60.40269
G1 X89.885 Y122.396 E60.42665
G1 X90.192 Y122.914 E60.45248
G1 X90.495 Y123.338 E60.47483
G1 X90.872 Y123.784 E60.49987
G1 X91.249 Y124.161 E60.52274
G1 X91.712 Y124.553 E60.54876
G1 X92.196 Y124.899 E60.57427
