;START_OF_HEADER
;HEADER_VERSION:0.1
;FLAVOR:Griffin
;GENERATOR.NAME:Cura_SteamEngine
;GENERATOR.VERSION:5.4.0
;GENERATOR.BUILD_DATE:2023-07-05
;TARGET_MACHINE.NAME:Ultimaker 3 Extended
;EXTRUDER_TRAIN.0.INITIAL_TEMPERATURE:210
;EXTRUDER_TRAIN.0.MATERIAL.VOLUME_USED:4633
;EXTRUDER_TRAIN.0.MATERIAL.GUID:506c9f0d-e3aa-4bd4-b2d2-23e2425b1aa9
;EXTRUDER_TRAIN.0.NOZZLE.DIAMETER:0.8
;EXTRUDER_TRAIN.0.NOZZLE.NAME:AA 0.8
;BUILD_PLATE.INITIAL_TEMPERATURE:60
;PRINT.TIME:625
;PRINT.GROUPS:1
;PRINT.SIZE.MIN.X:9
;PRINT.SIZE.MIN.Y:6
;PRINT.SIZE.MIN.Z:0.4
;PRINT.SIZE.MAX.X:144.535
;PRINT.SIZE.MAX.Y:126.532
;PRINT.SIZE.MAX.Z:10
;SLICE_UUID:019d44cf-cdd1-411c-a40d-efd30b8f30c2
;END_OF_HEADER
;Generated with Cura_SteamEngine 5.4.0
T0
M82 ;absolute extrusion mode

G92 E0
M109 S210
G0 F15000 X9 Y6 Z2
G280
G1 F1500 E-5
;LAYER_COUNT:25
;LAYER:0
M106 S255
M204 S1000
M205 X25 Y25
G1 F600 Z2.4
G0 F15000 X81.456 Y80.752 Z2.4
;TYPE:SKIRT
G1 F600 Z0.4
G1 F900 E0
G1 F1800 X82.033 Y80.244 E0.03856
G1 X82.733 Y79.695 E0.08319
G1 X83.536 Y79.163 E0.1315
G1 X84.369 Y78.694 E0.17946
G1 X84.892 Y78.439 E0.20864
G1 X85.645 Y78.114 E0.24978
G1 X86.765 Y77.742 E0.30898
G1 X87.558 Y77.537 E0.35007
G1 X88.553 Y77.362 E0.40074
G1 X89.523 Y77.266 E0.44964
G1 X91.281 Y77.232 E0.53784
G1 X130.591 Y77.232 E2.50969
G1 X132.339 Y77.271 E2.59739
G1 X133.063 Y77.334 E2.63384
G1 X133.741 Y77.432 E2.66821
G1 X134.784 Y77.65 E2.72166
G1 X135.837 Y77.972 E2.77689
G1 X136.4 Y78.188 E2.80714
G1 X137 Y78.45 E2.83998
G1 X137.774 Y78.835 E2.88334
G1 X138.617 Y79.336 E2.93253
G1 X139.343 Y79.851 E2.97718
G1 X140.014 Y80.389 E3.02032
G1 X140.916 Y81.237 E3.08242
G1 X141.604 Y82.021 E3.13475
G1 X142.126 Y82.71 E3.17811
G1 X142.69 Y83.563 E3.2294
G1 X143.247 Y84.608 E3.2888
G1 X143.655 Y85.54 E3.33984
G1 X143.934 Y86.363 E3.38343
G1 X144.148 Y87.128 E3.42327
G1 X144.261 Y87.634 E3.44928
G1 X144.4 Y88.417 E3.48917
G1 X144.499 Y89.387 E3.53808
G1 X144.535 Y91.244 E3.63125
G1 X144.534 Y112.639 E4.70445
G1 X144.492 Y114.425 E4.79407
G1 X144.44 Y115.003 E4.82318
G1 X144.319 Y115.85 E4.86609
G1 X144.113 Y116.793 E4.91451
G1 X143.792 Y117.841 E4.96949
G1 X143.483 Y118.637 E5.01232
G1 X142.994 Y119.66 E5.0692
G1 X142.569 Y120.387 E5.11144
G1 X141.967 Y121.282 E5.16555
G1 X141.338 Y122.051 E5.21538
G1 X140.609 Y122.836 E5.26912
G1 X139.774 Y123.579 E5.32518
G1 X138.92 Y124.227 E5.37896
G1 X138.196 Y124.684 E5.42191
G1 X137.262 Y125.2 E5.47543
G1 X136.265 Y125.637 E5.53003
G1 X134.91 Y126.085 E5.60162
G1 X134.097 Y126.264 E5.64338
G1 X133.391 Y126.386 E5.67932
G1 X132.394 Y126.495 E5.72963
G1 X130.505 Y126.532 E5.8244
G1 X91.279 Y126.531 E7.79204
G1 X89.437 Y126.488 E7.88446
G1 X88.835 Y126.433 E7.91478
G1 X87.844 Y126.28 E7.96508
G1 X87.13 Y126.126 E8.00172
G1 X85.909 Y125.744 E8.06589
G1 X85.024 Y125.386 E8.11378
G1 X84.083 Y124.922 E8.16641
G1 X83.03 Y124.283 E8.22819
G1 X82.299 Y123.735 E8.27402
G1 X81.66 Y123.204 E8.3157
G1 X80.891 Y122.455 E8.36955
G1 X80.373 Y121.865 E8.40893
G1 X79.892 Y121.254 E8.44793
G1 X79.548 Y120.769 E8.47776
G1 X79.185 Y120.205 E8.51141
G1 X78.635 Y119.185 E8.56953
G1 X78.225 Y118.243 E8.62107
G1 X77.883 Y117.248 E8.67384
G1 X77.613 Y116.173 E8.72944
G1 X77.441 Y115.102 E8.78385
G1 X77.371 Y114.386 E8.81994
G1 X77.335 Y112.52 E8.91356
G1 X77.336 Y91.12 E9.98702
G1 X77.374 Y89.436 E10.07151
G1 X77.441 Y88.675 E10.10983
G1 X77.562 Y87.854 E10.15146
G1 X77.747 Y87.029 E10.19387
G1 X77.975 Y86.227 E10.23569
G1 X78.384 Y85.122 E10.2948
G1 X78.914 Y84.036 E10.35541
G1 X79.444 Y83.144 E10.40746
G1 X79.975 Y82.398 E10.45339
G1 X80.591 Y81.631 E10.50274
G1 X81.456 Y80.752 E10.5646
G0 F15000 X81.986 Y81.351
G1 F1800 X82.528 Y80.872 E10.60088
G1 X83.175 Y80.362 E10.64221
G1 X83.978 Y79.83 E10.69052
G1 X84.72 Y79.413 E10.73322
G1 X85.209 Y79.174 E10.76052
G1 X85.962 Y78.849 E10.80166
G1 X86.968 Y78.516 E10.85481
G1 X87.697 Y78.325 E10.89262
G1 X88.692 Y78.15 E10.94329
G1 X89.538 Y78.066 E10.98594
G1 X91.296 Y78.032 E11.07414
G1 X130.574 Y78.032 E13.04438
G1 X132.271 Y78.068 E13.12952
G1 X132.949 Y78.126 E13.16366
G1 X133.627 Y78.224 E13.19802
G1 X134.551 Y78.415 E13.24535
G1 X135.55 Y78.719 E13.29773
G1 X136.113 Y78.935 E13.32798
G1 X136.645 Y79.167 E13.35709
G1 X137.367 Y79.524 E13.39749
G1 X138.154 Y79.989 E13.44335
G1 X138.88 Y80.504 E13.488
G1 X139.468 Y80.973 E13.52572
G1 X140.315 Y81.765 E13.58389
G1 X141.003 Y82.549 E13.63621
G1 X141.46 Y83.154 E13.67425
G1 X141.985 Y83.941 E13.7217
G1 X142.515 Y84.931 E13.77803
G1 X142.897 Y85.797 E13.82551
G1 X143.176 Y86.62 E13.8691
G1 X143.367 Y87.302 E13.90462
G1 X143.48 Y87.808 E13.93063
G1 X143.604 Y88.501 E13.96595
G1 X143.699 Y89.403 E14.01144
G1 X143.735 Y91.244 E14.10381
G1 X143.734 Y112.621 E15.17611
G1 X143.695 Y114.353 E15.26301
G1 X143.643 Y114.931 E15.29212
G1 X143.537 Y115.682 E15.33017
G1 X143.348 Y116.56 E15.37522
G1 X143.045 Y117.554 E15.42734
G1 X142.761 Y118.292 E15.46701
G1 X142.272 Y119.315 E15.52388
G1 X141.904 Y119.943 E15.5604
G1 X141.348 Y120.775 E15.61059
G1 X140.719 Y121.544 E15.66043
G1 X140.077 Y122.238 E15.70785
G1 X139.242 Y122.981 E15.76391
G1 X138.493 Y123.55 E15.8111
G1 X137.769 Y124.007 E15.85404
G1 X136.941 Y124.467 E15.90156
G1 X135.944 Y124.904 E15.95616
G1 X134.737 Y125.304 E16.01994
G1 X133.959 Y125.476 E16.05991
G1 X133.302 Y125.591 E16.09337
G1 X132.378 Y125.695 E16.14001
G1 X130.505 Y125.732 E16.23398
G1 X91.297 Y125.731 E18.20071
G1 X89.508 Y125.691 E18.29047
G1 X88.956 Y125.642 E18.31827
G1 X88.013 Y125.498 E18.36612
G1 X87.299 Y125.344 E18.40276
G1 X86.207 Y125.002 E18.46016
G1 X85.376 Y124.668 E18.50509
G1 X84.498 Y124.238 E18.55413
G1 X83.445 Y123.599 E18.61591
G1 X82.808 Y123.118 E18.65595
G1 X82.217 Y122.63 E18.6944
G1 X81.492 Y121.927 E18.74505
G1 X80.974 Y121.337 E18.78444
G1 X80.544 Y120.791 E18.8193
G1 X80.221 Y120.336 E18.84729
G1 X79.858 Y119.772 E18.88093
G1 X79.369 Y118.866 E18.93258
G1 X78.959 Y117.924 E18.98411
G1 X78.658 Y117.051 E19.03043
G1 X78.403 Y116.045 E19.08249
G1 X78.237 Y115.021 E19.13452
G1 X78.171 Y114.37 E19.16735
G1 X78.135 Y112.52 E19.26016
G1 X78.136 Y91.137 E20.33277
G1 X78.171 Y89.505 E20.41465
G1 X78.233 Y88.789 E20.4507
G1 X78.343 Y88.028 E20.48927
G1 X78.517 Y87.248 E20.52936
G1 X78.745 Y86.446 E20.57118
G1 X79.104 Y85.471 E20.6233
G1 X79.602 Y84.445 E20.6805
G1 X80.132 Y83.553 E20.73255
G1 X80.599 Y82.899 E20.77286
G1 X81.215 Y82.132 E20.82221
G1 X81.986 Y81.351 E20.87726
M204 S429
G1 F1500 E15.87726
;MESH:Freya_lid_V0 v1.stl
G0 F15000 X86.091 Y84.368
G0 X131.515 Y121.932
;TYPE:WALL-OUTER
G1 F900 E20.87726
G1 F1800 X132.198 Y121.904 E20.91498
G1 X132.851 Y121.828 E20.95125
G1 X133.504 Y121.698 E20.98799
G1 X134.116 Y121.525 E21.02308
G1 X134.75 Y121.292 E21.06035
G1 X135.353 Y121.013 E21.09701
G1 X135.919 Y120.696 E21.13281
G1 X136.462 Y120.334 E21.16882
G1 X136.989 Y119.917 E21.2059
G1 X137.478 Y119.465 E21.24264
G1 X137.917 Y118.989 E21.27837
G1 X138.339 Y118.456 E21.31588
G1 X138.701 Y117.914 E21.35184
G1 X139.018 Y117.346 E21.38773
G1 X139.301 Y116.732 E21.42504
G1 X139.528 Y116.113 E21.46142
G1 X139.704 Y115.489 E21.49719
G1 X139.831 Y114.846 E21.53336
G1 X139.908 Y114.19 E21.5698
G1 X139.935 Y113.512 E21.60724
G1 X139.935 Y90.236 E22.89156
G1 X139.908 Y89.574 E22.92811
G1 X139.831 Y88.919 E22.9645
G1 X139.699 Y88.258 E23.0017
G1 X139.528 Y87.65 E23.03655
G1 X139.296 Y87.018 E23.07369
G1 X139.016 Y86.416 E23.11033
G1 X138.696 Y85.843 E23.14654
G1 X138.339 Y85.308 E23.18203
G1 X137.922 Y84.78 E23.21915
G1 X137.473 Y84.295 E23.25562
G1 X136.981 Y83.84 E23.2926
G1 X136.462 Y83.429 E23.32913
G1 X135.917 Y83.066 E23.36526
G1 X135.351 Y82.75 E23.40103
G1 X134.746 Y82.47 E23.43781
G1 X134.116 Y82.238 E23.47486
G1 X133.504 Y82.065 E23.50995
G1 X132.851 Y81.935 E23.54669
G1 X132.199 Y81.859 E23.58291
G1 X131.515 Y81.832 E23.62068
G1 X90.355 Y81.832 E25.89179
G1 X89.671 Y81.859 E25.92956
G1 X89.019 Y81.935 E25.96578
G1 X88.366 Y82.065 E26.00252
G1 X87.754 Y82.238 E26.03761
G1 X87.12 Y82.472 E26.0749
G1 X86.527 Y82.746 E26.11094
G1 X85.946 Y83.071 E26.14768
G1 X85.41 Y83.428 E26.18321
G1 X84.889 Y83.839 E26.21983
G1 X84.393 Y84.299 E26.25715
G1 X83.942 Y84.787 E26.29382
G1 X83.532 Y85.308 E26.3304
G1 X83.174 Y85.843 E26.36592
G1 X82.848 Y86.427 E26.40282
G1 X82.568 Y87.032 E26.43961
G1 X82.344 Y87.641 E26.47541
G1 X82.168 Y88.273 E26.51161
G1 X82.039 Y88.919 E26.54796
G1 X81.962 Y89.574 E26.58435
G1 X81.935 Y90.252 E26.62179
G1 X81.936 Y113.528 E27.9061
G1 X81.962 Y114.19 E27.94266
G1 X82.039 Y114.844 E27.979
G1 X82.168 Y115.491 E28.0154
G1 X82.344 Y116.122 E28.05154
G1 X82.568 Y116.731 E28.08735
G1 X82.852 Y117.346 E28.12473
G1 X83.169 Y117.914 E28.16062
G1 X83.531 Y118.456 E28.19658
G1 X83.942 Y118.978 E28.23324
G1 X84.398 Y119.47 E28.27025
G1 X84.881 Y119.917 E28.30657
G1 X85.408 Y120.334 E28.34365
G1 X85.947 Y120.693 E28.37938
G1 X86.518 Y121.013 E28.4155
G1 X87.12 Y121.292 E28.45211
G1 X87.754 Y121.525 E28.48938
G1 X88.366 Y121.698 E28.52447
G1 X89.019 Y121.828 E28.56121
G1 X89.672 Y121.904 E28.59748
G1 X90.355 Y121.932 E28.6352
G1 X131.515 Y121.932 E30.90631
M204 S1000
G0 F15000 X131.915 Y121.916
G0 X131.499 Y121.132
;TYPE:WALL-INNER
G1 F1800 X132.136 Y121.106 E30.93669
G1 X132.726 Y121.037 E30.965
G1 X133.316 Y120.92 E30.99366
G1 X133.868 Y120.763 E31.02101
G1 X134.444 Y120.552 E31.05024
G1 X134.989 Y120.3 E31.07886
G1 X135.501 Y120.013 E31.10683
G1 X135.992 Y119.686 E31.13494
G1 X136.469 Y119.309 E31.16391
G1 X136.912 Y118.899 E31.19268
G1 X137.309 Y118.469 E31.22056
G1 X137.691 Y117.985 E31.24995
G1 X138.018 Y117.496 E31.27798
G1 X138.304 Y116.983 E31.30597
G1 X138.561 Y116.426 E31.3352
G1 X138.766 Y115.866 E31.36362
G1 X138.925 Y115.302 E31.39154
G1 X139.04 Y114.722 E31.41972
G1 X139.11 Y114.128 E31.44822
G1 X139.135 Y113.496 E31.47836
G1 X139.135 Y90.252 E32.58602
G1 X139.11 Y89.637 E32.61535
G1 X139.04 Y89.044 E32.6438
G1 X138.921 Y88.445 E32.67291
G1 X138.766 Y87.897 E32.70004
G1 X138.556 Y87.325 E32.72908
G1 X138.303 Y86.78 E32.75771
G1 X138.013 Y86.261 E32.78604
G1 X137.691 Y85.778 E32.81371
G1 X137.313 Y85.3 E32.84275
G1 X136.907 Y84.861 E32.87124
G1 X136.461 Y84.448 E32.90021
G1 X135.992 Y84.077 E32.92871
G1 X135.499 Y83.749 E32.95692
G1 X134.987 Y83.464 E32.98485
G1 X134.439 Y83.21 E33.01363
G1 X133.868 Y82.999 E33.04264
G1 X133.316 Y82.843 E33.06997
G1 X132.727 Y82.726 E33.09859
G1 X132.137 Y82.657 E33.1269
G1 X131.5 Y82.632 E33.15727
G1 X90.371 Y82.632 E35.11721
G1 X89.733 Y82.657 E35.14764
G1 X89.143 Y82.726 E35.17595
G1 X88.554 Y82.843 E35.20456
G1 X88.002 Y82.999 E35.2319
G1 X87.427 Y83.212 E35.26112
G1 X86.891 Y83.459 E35.28924
G1 X86.364 Y83.754 E35.31802
G1 X85.88 Y84.076 E35.34572
G1 X85.409 Y84.447 E35.37429
G1 X84.959 Y84.865 E35.40356
G1 X84.551 Y85.307 E35.43223
G1 X84.18 Y85.778 E35.4608
G1 X83.857 Y86.261 E35.48849
G1 X83.561 Y86.791 E35.51742
G1 X83.308 Y87.338 E35.54614
G1 X83.106 Y87.887 E35.57401
G1 X82.947 Y88.459 E35.6023
G1 X82.83 Y89.045 E35.63078
G1 X82.76 Y89.636 E35.65914
G1 X82.735 Y90.268 E35.68928
G1 X82.736 Y113.512 E36.79694
G1 X82.76 Y114.127 E36.82626
G1 X82.83 Y114.719 E36.85467
G1 X82.946 Y115.305 E36.88314
G1 X83.106 Y115.876 E36.9114
G1 X83.308 Y116.425 E36.93927
G1 X83.566 Y116.983 E36.96857
G1 X83.852 Y117.496 E36.99656
G1 X84.179 Y117.986 E37.02463
G1 X84.551 Y118.458 E37.05327
G1 X84.964 Y118.904 E37.08223
G1 X85.401 Y119.309 E37.11063
G1 X85.879 Y119.686 E37.13964
G1 X86.365 Y120.01 E37.16747
G1 X86.882 Y120.3 E37.19572
G1 X87.426 Y120.552 E37.22429
G1 X88.002 Y120.763 E37.25352
G1 X88.554 Y120.92 E37.28087
G1 X89.144 Y121.037 E37.30953
G1 X89.734 Y121.106 E37.33784
G1 X90.371 Y121.132 E37.36822
G1 X131.499 Y121.132 E39.32811
G0 F15000 X131.48 Y120.372
;TYPE:SKIN
G1 F1800 X132.084 Y120.347 E39.35404
G1 X132.6 Y120.288 E39.37631
G1 X133.389 Y120.13 E39.41082
G1 X134.153 Y119.849 E39.44573
G1 X134.64 Y119.623 E39.46876
G1 X135.102 Y119.364 E39.49147
G1 X135.538 Y119.074 E39.51393
G1 X135.976 Y118.727 E39.5379
G1 X136.379 Y118.355 E39.56142
G1 X136.734 Y117.969 E39.58391
G1 X137.071 Y117.544 E39.60717
G1 X137.372 Y117.092 E39.63046
G1 X137.629 Y116.631 E39.6531
G1 X137.861 Y116.127 E39.6769
G1 X138.045 Y115.624 E39.69987
G1 X138.186 Y115.123 E39.72219
G1 X138.291 Y114.594 E39.74532
G1 X138.351 Y114.075 E39.76773
G1 X138.375 Y113.478 E39.79335
G1 X138.375 Y90.264 E40.78895
G1 X138.351 Y89.69 E40.81359
G1 X138.291 Y89.172 E40.83596
G1 X138.132 Y88.375 E40.87081
G1 X137.851 Y87.61 E40.90577
G1 X137.623 Y87.121 E40.92891
G1 X137.368 Y86.665 E40.95131
G1 X137.075 Y86.225 E40.97399
G1 X136.739 Y85.801 E40.99719
G1 X136.362 Y85.395 E41.02095
G1 X135.96 Y85.022 E41.04447
G1 X135.539 Y84.69 E41.06746
G1 X135.096 Y84.395 E41.09029
G1 X134.635 Y84.138 E41.11293
G1 X134.149 Y83.913 E41.1359
G1 X133.386 Y83.633 E41.17075
G1 X132.601 Y83.475 E41.2051
G1 X132.085 Y83.416 E41.22737
G1 X131.481 Y83.392 E41.25329
G1 X90.389 Y83.392 E43.01565
G1 X89.785 Y83.416 E43.04158
G1 X89.269 Y83.475 E43.06385
G1 X88.481 Y83.633 E43.09832
G1 X87.715 Y83.916 E43.13334
G1 X87.241 Y84.135 E43.15574
G1 X86.767 Y84.4 E43.17903
G1 X86.332 Y84.689 E43.20142
G1 X85.911 Y85.021 E43.22442
G1 X85.494 Y85.409 E43.24885
G1 X85.125 Y85.808 E43.27216
G1 X84.793 Y86.23 E43.29518
G1 X84.503 Y86.665 E43.31761
G1 X84.236 Y87.142 E43.34105
G1 X84.008 Y87.637 E43.36442
G1 X83.834 Y88.115 E43.38624
G1 X83.686 Y88.645 E43.40984
G1 X83.579 Y89.173 E43.43295
G1 X83.519 Y89.688 E43.45518
G1 X83.495 Y90.286 E43.48085
G1 X83.497 Y113.501 E44.4765
G1 X83.519 Y114.075 E44.50113
G1 X83.579 Y114.591 E44.52341
G1 X83.686 Y115.126 E44.54681
G1 X83.828 Y115.634 E44.56943
G1 X84.011 Y116.134 E44.59227
G1 X84.241 Y116.631 E44.61576
G1 X84.498 Y117.092 E44.63839
G1 X84.792 Y117.533 E44.66112
G1 X85.125 Y117.956 E44.68421
G1 X85.499 Y118.359 E44.70779
G1 X85.9 Y118.732 E44.73128
G1 X86.326 Y119.07 E44.7546
G1 X86.766 Y119.363 E44.77728
G1 X87.231 Y119.623 E44.80012
G1 X87.718 Y119.849 E44.82315
G1 X88.48 Y120.13 E44.85798
G1 X89.27 Y120.288 E44.89253
G1 X89.786 Y120.347 E44.91481
G1 X90.39 Y120.372 E44.94074
G1 X131.48 Y120.372 E46.70301
G1 F1500 E41.70301
G0 F15000 X131.48 Y120.872
G0 X133.241 Y120.608
G0 X135.333 Y119.74
G0 X137.064 Y118.26
G0 X138.264 Y116.303
G0 X138.79 Y114.103
G0 X138.79 Y89.662
G0 X138.242 Y87.268
G0 X137.426 Y87.645
G1 F900 E46.70301
G1 F1800 X134.121 Y84.341 E46.90343
G0 F15000 X132.516 Y83.867
G1 F1800 X137.898 Y89.249 E47.22987
G0 F15000 X137.974 Y90.457
G1 F1800 X131.309 Y83.792 E47.63412
G0 F15000 X130.178 Y83.792
G1 F1800 X137.974 Y91.588 E48.10697
G0 F15000 X137.974 Y92.72
G1 F1800 X129.046 Y83.792 E48.64848
G0 F15000 X127.915 Y83.792
G1 F1800 X137.974 Y93.851 E49.25859
G0 F15000 X137.974 Y94.982
G1 F1800 X126.784 Y83.792 E49.93729
G0 F15000 X125.652 Y83.792
G1 F1800 X137.974 Y96.114 E50.68466
G0 F15000 X137.974 Y97.245
G1 F1800 X124.521 Y83.792 E51.50062
G0 F15000 X123.39 Y83.792
G1 F1800 X137.974 Y98.376 E52.38518
G0 F15000 X137.974 Y99.508
G1 F1800 X122.258 Y83.792 E53.3384
G0 F15000 X121.127 Y83.792
G1 F1800 X137.974 Y100.639 E54.36022
G0 F15000 X137.974 Y101.771
G1 F1800 X119.996 Y83.792 E55.45067
G0 F15000 X118.864 Y83.792
G1 F1800 X137.974 Y102.902 E56.60975
G0 F15000 X137.974 Y104.033
G1 F1800 X117.733 Y83.792 E57.83742
G0 F15000 X116.601 Y83.792
G1 F1800 X137.974 Y105.165 E59.13376
G0 F15000 X137.974 Y106.296
G1 F1800 X115.47 Y83.792 E60.49869
G0 F15000 X114.339 Y83.792
G1 F1800 X137.974 Y107.427 E61.93222
G0 F15000 X137.974 Y108.559
G1 F1800 X113.207 Y83.792 E63.43441
G0 F15000 X112.076 Y83.792
G1 F1800 X137.974 Y109.69 E65.0052
G0 F15000 X137.974 Y110.822
G1 F1800 X110.945 Y83.792 E66.64461
G0 F15000 X109.813 Y83.792
G1 F1800 X137.974 Y111.953 E68.35266
G0 F15000 X137.974 Y113.084
G1 F1800 X108.682 Y83.792 E70.12931
G0 F15000 X107.55 Y83.792
G1 F1800 X137.945 Y114.187 E71.97285
G0 F15000 X137.774 Y115.146
G1 F1800 X106.419 Y83.792 E73.87459
G0 F15000 X105.288 Y83.792
G1 F1800 X137.484 Y115.988 E75.82737
G0 F15000 X137.117 Y116.752
G1 F1800 X104.156 Y83.792 E77.82652
G0 F15000 X103.025 Y83.792
G1 F1800 X136.656 Y117.422 E79.86631
G0 F15000 X136.135 Y118.033
G1 F1800 X101.894 Y83.792 E81.94312
